X: 1531
T: Harry's Favourite Shotease
B: australian traditional tunes wiki
M:4/4
L:1/8
R: Schottische
Q: 1/4=100
K:D
V:1 
F>G||"D"A>d c>d d<A F>A|"G"c<B B>BB2 (3BcB|"A7"A>B c>d e>d e>g|"D"f2f>ef2[A3/2D3/2]F/|
"D"D>d c>d d<A F>A|"G"c<B B>BB2 (3BcB|"A7"A>B c>d e>d e>f|"D"d2d>dd2B>c||
|"D"d2d2F2G2|"A7"(3BcB A>A [A2F2] (3ABc|"D"d2A>B (3fgf e>d|"A7"[e2c2] [e3/2c3/2]c/ [e2c2] [e3/2A3/2]c/|
"A7"[e2A2] [f2A2] g2 (3fgf|e2a>aa2 c>B|A>f g<eB2.c2|"D"d>A "A7"d>e "D".d2||
% abcbook-tune_id 6342d53a0369a16c40769ff9


% abcbook-boost 0
% abcbook-tablature 
% abcbook-transpose 
% abcbook-lastupdated 1665324369617
% abcbook-soundfonts 
% abcbook-repeats 1
% NFF Book 2006

